X:1
L:1/8
Q:1/4=100
M:2/2
K:D
 D/D/D FA d>edf | edef e>fef | D/D/D FA d>edf | edef d>e d2 :: (f/g/) | af d(e/f/) gece | 
 afdf e>f e(f/g/) | af- f(e/f/) ge- e(f/g/) | afge d/d/d d :|
